X: 33
T: Sweet Nell
R: reel
C: Jamie Gans
M: 4/4
L: 1/8
Z: Contributed 2016-01-12 23:09:24 by debby knight debbyjk@aol.com
K: A
|:\
"A"[E2A,2]A2 ABcA | "E"BcdB "A"c2[c2A2] |\
"A"[E2A,2]A2 ABcA | "E"BAGA BAGA |\
"A"[E2A,2]A2 Bc2A | "E"Bc d2 "A"c2Bc |
"D"d4 "A"c2BA |1 "E" GAB2 "A"A2[E2A,2] :|\
[2 "E"GA B2"A"A2cd |:\
"A"e4 a3g | "D"f2 d4 e2 |\
"A" a2f2 ec3 |
"E"B3cB2AB |\
"A"cABc AGFG | "A"AG3 "D"F4 |\
"E" EFAB cABG |1 "A"A3B A2cd :|2 "A"A3B A4 ||

%%sep 1 1 500

